X:057
T:Flowers of Red Hill (reel), The 
B:CRE3.125 (BlÃÂÃÂÃÂÃÂ¡thanna an Chnoic Rua)
F:file ID: cre.3/057flow_rh
L:1/8
R:reel
%Q:180
M:C
K:D
"A modal"
aged BGGF|G2BG dGe2|aged BGG2|BcdB A2ab|
aged BGGA|(3BAG BG dGe2|aged BGG2|BcdB A3z||
eaae g3a|eaae gedg|eaa2 g2ag|egdG BAA2|
a3f g3f|a3f ged2|bgag eafa|gedB A3z||

%%%

